icons/desktop/20/thumbs-up-20.svg

<svg width="20" height="20" viewBox="0 0 20 20" fill="none" xmlns="http://www.w3.org/2000/svg">
<g clip-path="url(#clip0_8069_32740)">
<path fill-rule="evenodd" clip-rule="evenodd" d="M10.3418 0.5C11.7947 0.5 12.9774 1.68286 12.9775 3.13574V5.48828C13.6505 5.45328 14.3273 5.43655 14.9873 5.43555C15.706 5.43555 16.3997 5.45719 17.0645 5.49316C18.6775 5.58216 19.966 6.91532 20 8.52832C20.025 9.7642 19.8625 10.99 19.5176 12.1719C19.0596 13.7399 18.2988 15.1821 17.2568 16.4561C16.7298 17.099 15.9945 17.5008 15.1875 17.5908C13.3956 17.7888 11.5724 17.927 9.76758 18H4.91309C4.70703 18.5823 4.15293 19 3.5 19H1.5C0.671573 19 0 18.3284 0 17.5V8C0 7.17157 0.671573 6.5 1.5 6.5H3.5C4.22474 6.5 4.82971 7.01393 4.96973 7.69727L5.40625 7.68457C5.88313 6.95971 6.31448 6.2045 6.69141 5.43066C7.23528 4.31785 7.67689 3.14791 8.00684 1.95312C8.34384 1.05413 9.14534 0.5 10.0273 0.5H10.3418ZM10.0264 2.25C9.86837 2.25 9.72395 2.34909 9.66895 2.49609C9.33495 3.71707 8.85368 4.98827 8.2627 6.19824C7.78373 7.18014 7.22455 8.13608 6.59961 9.04199C6.44265 9.27083 6.18604 9.41084 5.9082 9.41992L5 9.44824V16.25H9.72949C11.4585 16.179 13.2412 16.0436 14.9922 15.8496C15.3441 15.8115 15.6665 15.6316 15.9004 15.3467C16.7932 14.2558 17.444 13.0215 17.8359 11.6807C18.1308 10.6699 18.27 9.62121 18.248 8.56348C18.234 7.86048 17.6718 7.27921 16.9678 7.24121C16.3048 7.20422 15.6316 7.18655 14.8896 7.18555C13.9917 7.18755 13.0768 7.22398 12.1689 7.29297C11.926 7.31396 11.6848 7.22936 11.5068 7.06348C11.3278 6.89848 11.2266 6.6659 11.2266 6.4209V3.13574C11.2264 2.64786 10.8297 2.25 10.3408 2.25H10.0264Z" fill="black"/>
</g>
<defs>
<clipPath id="clip0_8069_32740">
<rect width="20" height="20" fill="white"/>
</clipPath>
</defs>
</svg>

<!-- This Source Code Form is subject to the terms of the Mozilla Public
   - License, v. 2.0. If a copy of the MPL was not distributed with this
   - file, You can obtain one at http://mozilla.org/MPL/2.0/. -->
<svg xmlns="http://www.w3.org/2000/svg" width="20" height="20" fill="context-fill" fill-opacity="context-fill-opacity" viewBox="0 0 20 20">
    <g clip-path="url(#clip0_8069_32740)">
        <path fill-rule="evenodd" d="M10.342.5a2.64 2.64 0 0 1 2.635 2.636v2.352a38.427 38.427 0 0 1 4.087.005A3.12 3.12 0 0 1 20 8.528a12.12 12.12 0 0 1-2.743 7.928 3.11 3.11 0 0 1-2.07 1.135 78 78 0 0 1-5.42.409H4.914A1.5 1.5 0 0 1 3.5 19h-2A1.5 1.5 0 0 1 0 17.5V8a1.5 1.5 0 0 1 1.5-1.5h2a1.5 1.5 0 0 1 1.47 1.197l.436-.012a20.2 20.2 0 0 0 2.6-5.732C8.345 1.054 9.147.5 10.028.5zm-.316 1.75c-.158 0-.302.1-.357.246a21.5 21.5 0 0 1-1.406 3.702A22 22 0 0 1 6.6 9.042a.87.87 0 0 1-.692.378L5 9.448v6.802h4.73a77 77 0 0 0 5.262-.4c.352-.038.674-.218.908-.503a10.34 10.34 0 0 0 2.348-6.784 1.36 1.36 0 0 0-1.28-1.322 38 38 0 0 0-2.078-.055 37 37 0 0 0-2.721.107.872.872 0 0 1-.942-.872V3.136a.887.887 0 0 0-.886-.886z" clip-rule="evenodd" />
    </g>
</svg>
